data/zilla-slab-highlight.svg

<svg width="116" height="16.8" viewBox="0 0 116 16.8" xmlns="http://www.w3.org/2000/svg"><path transform="translate(0 13.216) scale(.014 -.014)" d="m-12-213v1130h598v-1130zm44 213h480l26 193-63 9-28-138h-314v3l386 543-2 40h-448l-25-188 62-9 28 133h280v-3l-384-539z"/><path transform="translate(8.036 13.216) scale(.014 -.014)" d="M-12 -213V917H289V-213ZM103 651V560H179V651ZM32 0H258V57H180V445H30V388H110V57H32Z"/><path transform="translate(11.914 13.216) scale(.014 -.014)" d="M-12 -213V917H274V-213ZM18 0H244V57H166V688H17V631H96V57H18Z"/><path transform="translate(15.582 13.216) scale(.014 -.014)" d="M-12 -213V917H274V-213ZM18 0H244V57H166V688H17V631H96V57H18Z"/><path transform="translate(19.25 13.216) scale(.014 -.014)" d="m-12-213v1130h503v-1130zm91 624-16-103 58-7 17 77q37 18 86 18 60 0 80.5-30t20.5-78v-40q-18 2-38.5 3t-40.5 1q-75 0-141.5-26.5t-66.5-110.5q0-71 45.5-98t89.5-27q54 0 92.5 28t59.5 64v-2q2-90 81-90 31 0 58 15l-1 46q-13-6-30-6-38 0-38 48v212q0 149-159 149-44 0-83-10t-74-33zm246-244q-4-55-44.5-87t-86.5-32q-29 0-56 16t-27 59q0 52 40.5 67.5t90.5 15.5q22 0 43-2t40-3z"/><path transform="translate(29.442 13.216) scale(.014 -.014)" d="m-12-213v1130h553v-1130zm500 395q0 74-35.5 111.5t-85 53-93.5 25.5q-55 13-100 34t-45 82q0 52 37.5 79.5t98.5 27.5q29 0 61-5.5t63-21.5l10-97 60 6-6 129q-31 24-86 39t-109 15q-84 0-145.5-44t-61.5-136q0-64 30-97.5t75-49 91-25.5q60-14 111-36.5t51-96.5q0-66-46.5-93.5t-110.5-27.5q-36 0-69 6t-66 23l4 82-60 6-14-128q73-53 209-53 99 0 165.5 49t66.5 143z"/><path transform="translate(36.848 13.216) scale(.014 -.014)" d="M-12 -213V917H274V-213ZM18 0H244V57H166V688H17V631H96V57H18Z"/><path transform="translate(40.516 13.216) scale(.014 -.014)" d="m-12-213v1130h503v-1130zm91 624-16-103 58-7 17 77q37 18 86 18 60 0 80.5-30t20.5-78v-40q-18 2-38.5 3t-40.5 1q-75 0-141.5-26.5t-66.5-110.5q0-71 45.5-98t89.5-27q54 0 92.5 28t59.5 64v-2q2-90 81-90 31 0 58 15l-1 46q-13-6-30-6-38 0-38 48v212q0 149-159 149-44 0-83-10t-74-33zm246-244q-4-55-44.5-87t-86.5-32q-29 0-56 16t-27 59q0 52 40.5 67.5t90.5 15.5q22 0 43-2t40-3z"/><path transform="translate(47.222 13.216) scale(.014 -.014)" d="m-12-213v1130h551v-1130zm505 447q0 106-54 163t-137 57q-64 0-101.5-30t-57.5-71v335h-147v-57h76v-501q0-33-4-67t-9-63h70q1 4 5 37t4 37q45-84 156-84 71 0 115 36.5t64 92.5 20 115zm-74-7q0-69-32.5-123t-106.5-54q-58 0-97.5 39t-39.5 95v67q1 49 39 96t102 47q57 0 96-42t39-125z"/><path transform="translate(58.086 13.216) scale(.014 -.014)" d="M-12 -213V917H764V-213ZM474 0H711V64H629V586H711V650H474V586H556V362H195V586H277V650H40V586H122V64H40V0H277V64H195V300H556V64H474Z"/><path transform="translate(68.614 13.216) scale(.014 -.014)" d="M-12 -213V917H289V-213ZM103 651V560H179V651ZM32 0H258V57H180V445H30V388H110V57H32Z"/><path transform="translate(72.492 13.216) scale(.014 -.014)" d="m-12-213v1130h569v-1130h-309q100 4 154.5 65.5t54.5 163.5v372h72v57h-143v-70q-45 79-151 79-103 0-151-77t-48-166q0-105 56-161t135-56q63 0 101 29t58 68v-72q0-83-40.5-127t-104.5-44q-45 0-87 23t-59 75l-56-28q17-64 68.5-96t116.5-35zm398 482v-77q-2-50-41.5-93.5t-102.5-43.5q-55 0-93 39.5t-38 121.5q0 70 33.5 123.5t109.5 53.5q54 0 93-34t39-90z"/><path transform="translate(80.122 13.216) scale(.014 -.014)" d="m-12-213v1130h580v-1130zm335 213h226v57h-77v228q0 89-44 129t-109 40q-107 0-156-89v323h-148v-57h77v-574h-77v-57h225v57h-77v210q2 49 38.5 88.5t94.5 39.5q46 0 75.5-29.5t29.5-101.5v-207h-78z"/><path transform="translate(87.906 13.216) scale(.014 -.014)" d="M-12 -213V917H274V-213ZM18 0H244V57H166V688H17V631H96V57H18Z"/><path transform="translate(91.574 13.216) scale(.014 -.014)" d="M-12 -213V917H289V-213ZM103 651V560H179V651ZM32 0H258V57H180V445H30V388H110V57H32Z"/><path transform="translate(95.452 13.216) scale(.014 -.014)" d="m-12-213v1130h569v-1130h-309q100 4 154.5 65.5t54.5 163.5v372h72v57h-143v-70q-45 79-151 79-103 0-151-77t-48-166q0-105 56-161t135-56q63 0 101 29t58 68v-72q0-83-40.5-127t-104.5-44q-45 0-87 23t-59 75l-56-28q17-64 68.5-96t116.5-35zm398 482v-77q-2-50-41.5-93.5t-102.5-43.5q-55 0-93 39.5t-38 121.5q0 70 33.5 123.5t109.5 53.5q54 0 93-34t39-90z"/><path transform="translate(103.08 13.216) scale(.014 -.014)" d="m-12-213v1130h580v-1130zm335 213h226v57h-77v228q0 89-44 129t-109 40q-107 0-156-89v323h-148v-57h77v-574h-77v-57h225v57h-77v210q2 49 38.5 88.5t94.5 39.5q46 0 75.5-29.5t29.5-101.5v-207h-78z"/><path transform="translate(110.87 13.216) scale(.014 -.014)" d="m-12-213v1130h391v-1130zm365 333-54 17q-10-54-28.5-70t-43.5-16q-41 0-56.5 24.5t-15.5 64.5v249h174v56h-174v143h-70v-143h-72v-56h72v-258q0-65 33.5-103t100.5-38q114 0 134 130z"/></svg>

<?xml version="1.0" encoding="utf-8" ?>
<svg baseProfile="tiny" height="100%" version="1.2" width="100%" xmlns="http://www.w3.org/2000/svg" xmlns:ev="http://www.w3.org/2001/xml-events" xmlns:xlink="http://www.w3.org/1999/xlink"><defs /><g><path d="M-12 -213V917H586V-213ZM32 0H512L538 193L475 202L447 64H133V67L519 610L517 650H69L44 462L106 453L134 586H414V583L30 44Z" transform="translate(0.0, 72) scale(0.072, -0.072)" /><path d="M-12 -213V917H289V-213ZM103 651V560H179V651ZM32 0H258V57H180V445H30V388H110V57H32Z" transform="translate(41.327999999999996, 72) scale(0.072, -0.072)" /><path d="M-12 -213V917H274V-213ZM18 0H244V57H166V688H17V631H96V57H18Z" transform="translate(61.27199999999999, 72) scale(0.072, -0.072)" /><path d="M-12 -213V917H274V-213ZM18 0H244V57H166V688H17V631H96V57H18Z" transform="translate(80.136, 72) scale(0.072, -0.072)" /><path d="M-12 -213V917H491V-213ZM79 411 63 308 121 301 138 378Q175 396 224 396Q284 396 304.5 366.0Q325 336 325 288V248Q307 250 286.5 251.0Q266 252 246 252Q171 252 104.5 225.5Q38 199 38 115Q38 44 83.5 17.0Q129 -10 173 -10Q227 -10 265.5 18.0Q304 46 325 82V80Q327 -10 406 -10Q437 -10 464 5L463 51Q450 45 433 45Q395 45 395 93V305Q395 454 236 454Q192 454 153.0 444.0Q114 434 79 411ZM325 167Q321 112 280.5 80.0Q240 48 194 48Q165 48 138.0 64.0Q111 80 111 123Q111 175 151.5 190.5Q192 206 242 206Q264 206 285.0 204.0Q306 202 325 201Z" transform="translate(99.0, 72) scale(0.072, -0.072)" /><path d="M-12 -213V917H541V-213ZM488 182Q488 256 452.5 293.5Q417 331 367.5 346.5Q318 362 274 372Q219 385 174.0 406.0Q129 427 129 488Q129 540 166.5 567.5Q204 595 265 595Q294 595 326.0 589.5Q358 584 389 568L399 471L459 477L453 606Q422 630 367.0 645.0Q312 660 258 660Q174 660 112.5 616.0Q51 572 51 480Q51 416 81.0 382.5Q111 349 156.0 333.5Q201 318 247 308Q307 294 358.0 271.5Q409 249 409 175Q409 109 362.5 81.5Q316 54 252 54Q216 54 183.0 60.0Q150 66 117 83L121 165L61 171L47 43Q120 -10 256 -10Q355 -10 421.5 39.0Q488 88 488 182Z" transform="translate(151.416, 72) scale(0.072, -0.072)" /><path d="M-12 -213V917H274V-213ZM18 0H244V57H166V688H17V631H96V57H18Z" transform="translate(189.504, 72) scale(0.072, -0.072)" /><path d="M-12 -213V917H491V-213ZM79 411 63 308 121 301 138 378Q175 396 224 396Q284 396 304.5 366.0Q325 336 325 288V248Q307 250 286.5 251.0Q266 252 246 252Q171 252 104.5 225.5Q38 199 38 115Q38 44 83.5 17.0Q129 -10 173 -10Q227 -10 265.5 18.0Q304 46 325 82V80Q327 -10 406 -10Q437 -10 464 5L463 51Q450 45 433 45Q395 45 395 93V305Q395 454 236 454Q192 454 153.0 444.0Q114 434 79 411ZM325 167Q321 112 280.5 80.0Q240 48 194 48Q165 48 138.0 64.0Q111 80 111 123Q111 175 151.5 190.5Q192 206 242 206Q264 206 285.0 204.0Q306 202 325 201Z" transform="translate(208.368, 72) scale(0.072, -0.072)" /><path d="M-12 -213V917H539V-213ZM493 234Q493 340 439.0 397.0Q385 454 302 454Q238 454 200.5 424.0Q163 394 143 353V688H-4V631H72V130Q72 97 68.0 63.0Q64 29 59 0H129Q130 4 134.0 37.0Q138 70 138 74Q183 -10 294 -10Q365 -10 409.0 26.5Q453 63 473.0 119.0Q493 175 493 234ZM419 227Q419 158 386.5 104.0Q354 50 280 50Q222 50 182.5 89.0Q143 128 143 184V251Q144 300 182.0 347.0Q220 394 284 394Q341 394 380.0 352.0Q419 310 419 227Z" transform="translate(242.856, 72) scale(0.072, -0.072)" /><path d="M-12 -213V917H764V-213ZM474 0H711V64H629V586H711V650H474V586H556V362H195V586H277V650H40V586H122V64H40V0H277V64H195V300H556V64H474Z" transform="translate(298.728, 72) scale(0.072, -0.072)" /><path d="M-12 -213V917H289V-213ZM103 651V560H179V651ZM32 0H258V57H180V445H30V388H110V57H32Z" transform="translate(352.872, 72) scale(0.072, -0.072)" /><path d="M-12 -213V917H557V-213H248Q348 -209 402.5 -147.5Q457 -86 457 16V388H529V445H386V375Q341 454 235 454Q132 454 84.0 377.0Q36 300 36 211Q36 106 92.0 50.0Q148 -6 227 -6Q290 -6 328.0 23.0Q366 52 386 91V19Q386 -64 345.5 -108.0Q305 -152 241 -152Q196 -152 154.0 -129.0Q112 -106 95 -54L39 -82Q56 -146 107.5 -178.0Q159 -210 224 -213ZM386 269V192Q384 142 344.5 98.5Q305 55 242 55Q187 55 149.0 94.5Q111 134 111 216Q111 286 144.5 339.5Q178 393 254 393Q308 393 347.0 359.0Q386 325 386 269Z" transform="translate(372.81600000000003, 72) scale(0.072, -0.072)" /><path d="M-12 -213V917H568V-213ZM323 0H549V57H472V285Q472 374 428.0 414.0Q384 454 319 454Q212 454 163 365V688H15V631H92V57H15V0H240V57H163V267Q165 316 201.5 355.5Q238 395 296 395Q342 395 371.5 365.5Q401 336 401 264V57H323Z" transform="translate(412.05600000000004, 72) scale(0.072, -0.072)" /><path d="M-12 -213V917H274V-213ZM18 0H244V57H166V688H17V631H96V57H18Z" transform="translate(452.088, 72) scale(0.072, -0.072)" /><path d="M-12 -213V917H289V-213ZM103 651V560H179V651ZM32 0H258V57H180V445H30V388H110V57H32Z" transform="translate(470.952, 72) scale(0.072, -0.072)" /><path d="M-12 -213V917H557V-213H248Q348 -209 402.5 -147.5Q457 -86 457 16V388H529V445H386V375Q341 454 235 454Q132 454 84.0 377.0Q36 300 36 211Q36 106 92.0 50.0Q148 -6 227 -6Q290 -6 328.0 23.0Q366 52 386 91V19Q386 -64 345.5 -108.0Q305 -152 241 -152Q196 -152 154.0 -129.0Q112 -106 95 -54L39 -82Q56 -146 107.5 -178.0Q159 -210 224 -213ZM386 269V192Q384 142 344.5 98.5Q305 55 242 55Q187 55 149.0 94.5Q111 134 111 216Q111 286 144.5 339.5Q178 393 254 393Q308 393 347.0 359.0Q386 325 386 269Z" transform="translate(490.896, 72) scale(0.072, -0.072)" /><path d="M-12 -213V917H568V-213ZM323 0H549V57H472V285Q472 374 428.0 414.0Q384 454 319 454Q212 454 163 365V688H15V631H92V57H15V0H240V57H163V267Q165 316 201.5 355.5Q238 395 296 395Q342 395 371.5 365.5Q401 336 401 264V57H323Z" transform="translate(530.136, 72) scale(0.072, -0.072)" /><path d="M-12 -213V917H379V-213ZM353 120 299 137Q289 83 270.5 67.0Q252 51 227 51Q186 51 170.5 75.5Q155 100 155 140V389H329V445H155V588H85V445H13V389H85V131Q85 66 118.5 28.0Q152 -10 219 -10Q333 -10 353 120Z" transform="translate(570.168, 72) scale(0.072, -0.072)" /></g></svg>
